public/img/CATEGORIES_ICONS/GAMES_ICON.svg

<?xml version="1.0" encoding="UTF-8"?>
<svg width="87px" height="122px" viewBox="0 0 87 122" version="1.1" xmlns="http://www.w3.org/2000/svg" xmlns:xlink="http://www.w3.org/1999/xlink">
    <!-- Generator: Sketch 42 (36781) - http://www.bohemiancoding.com/sketch -->
    <title>GAMES_ICON</title>
    <desc>Created with Sketch.</desc>
    <defs></defs>
    <g id="Page-1" stroke="none" stroke-width="1" fill="none" fill-rule="evenodd">
        <g id="Home" transform="translate(-227.000000, -1223.000000)">
            <g id="CATEGORIES" transform="translate(122.000000, 1066.000000)">
                <g id="GAMES_ICON" transform="translate(105.000000, 156.982000)">
                    <polygon id="Fill-81" fill="#00B1B0" points="0.3238 25.1164 43.6248 0.1164 86.9268 25.1164 86.9268 75.1164 43.6248 100.1164 0.3238 75.1164"></polygon>
                    <polygon id="Fill-82" fill="#FEFEFE" points="38.3746 46.9499 29.4576 46.9499 29.4576 38.0339 23.1246 38.0339 23.1246 46.9499 14.2086 46.9499 14.2086 53.2829 23.1246 53.2829 23.1246 62.1999 29.4576 62.1999 29.4576 53.2829 38.3746 53.2829"></polygon>
                    <path d="M64.7926,41.8669 C64.7926,43.9839 63.0766,45.6999 60.9596,45.6999 C58.8426,45.6999 57.1256,43.9839 57.1256,41.8669 C57.1256,39.7499 58.8426,38.0339 60.9596,38.0339 C63.0766,38.0339 64.7926,39.7499 64.7926,41.8669" id="Fill-83" fill="#FEFEFE"></path>
                    <path d="M64.7926,58.3659 C64.7926,60.4829 63.0766,62.1999 60.9596,62.1999 C58.8426,62.1999 57.1256,60.4829 57.1256,58.3659 C57.1256,56.2489 58.8426,54.5329 60.9596,54.5329 C63.0766,54.5329 64.7926,56.2489 64.7926,58.3659" id="Fill-84" fill="#FEFEFE"></path>
                    <path d="M56.5426,50.1164 C56.5426,52.2334 54.8266,53.9494 52.7096,53.9494 C50.5926,53.9494 48.8756,52.2334 48.8756,50.1164 C48.8756,47.9994 50.5926,46.2834 52.7096,46.2834 C54.8266,46.2834 56.5426,47.9994 56.5426,50.1164" id="Fill-85" fill="#FEFEFE"></path>
                    <path d="M73.0416,50.1164 C73.0416,52.2334 71.3256,53.9494 69.2086,53.9494 C67.0916,53.9494 65.3746,52.2334 65.3746,50.1164 C65.3746,47.9994 67.0916,46.2834 69.2086,46.2834 C71.3256,46.2834 73.0416,47.9994 73.0416,50.1164" id="Fill-86" fill="#FEFEFE"></path>
                    <path d="M28.0945,113.1973 C30.1815,113.1973 31.2615,114.2763 31.2615,114.2763 L30.4935,115.4273 C30.4935,115.4273 29.5815,114.6123 28.2265,114.6123 C26.3195,114.6123 25.3005,115.9313 25.3005,117.5393 C25.3005,119.3853 26.5595,120.5853 28.1545,120.5853 C29.4385,120.5853 30.2895,119.6973 30.2895,119.6973 L30.2895,118.7023 L28.9825,118.7023 L28.9825,117.3713 L31.6805,117.3713 L31.6805,121.8563 L30.3615,121.8563 L30.3615,121.4483 C30.3615,121.2683 30.3735,121.0893 30.3735,121.0893 L30.3495,121.0893 C30.3495,121.0893 29.4625,122.0003 27.8785,122.0003 C25.6365,122.0003 23.7055,120.2613 23.7055,117.5873 C23.7055,115.1163 25.5645,113.1973 28.0945,113.1973" id="Fill-87" fill="#00B1B0"></path>
                    <path d="M36.1355,114.8164 C36.1355,114.8164 35.9435,115.6564 35.7755,116.1354 L35.0205,118.4144 L37.2505,118.4144 L36.4955,116.1354 C36.3395,115.6564 36.1595,114.8164 36.1595,114.8164 L36.1355,114.8164 Z M37.6345,119.6734 L34.6485,119.6734 L33.9285,121.8564 L32.3335,121.8564 L35.3315,113.3404 L36.9505,113.3404 L39.9495,121.8564 L38.3545,121.8564 L37.6345,119.6734 Z" id="Fill-88" fill="#00B1B0"></path>
                    <path d="M41.4768,113.3408 L43.1318,113.3408 L44.7988,117.5508 C44.9908,118.0548 45.2308,118.7978 45.2308,118.7978 L45.2548,118.7978 C45.2548,118.7978 45.4828,118.0548 45.6748,117.5508 L47.3418,113.3408 L48.9968,113.3408 L49.6808,121.8568 L48.1448,121.8568 L47.7858,117.0948 C47.7488,116.5308 47.7728,115.7758 47.7728,115.7758 L47.7488,115.7758 C47.7488,115.7758 47.4978,116.6038 47.2938,117.0948 L45.9138,120.3938 L44.5588,120.3938 L43.1918,117.0948 C42.9878,116.6038 42.7238,115.7638 42.7238,115.7638 L42.6998,115.7638 C42.6998,115.7638 42.7238,116.5308 42.6878,117.0948 L42.3288,121.8568 L40.7808,121.8568 L41.4768,113.3408 Z" id="Fill-89" fill="#00B1B0"></path>
                    <polygon id="Fill-90" fill="#00B1B0" points="51.5813 113.3408 56.6783 113.3408 56.6783 114.6728 53.1283 114.6728 53.1283 116.9038 55.9953 116.9038 55.9953 118.2348 53.1283 118.2348 53.1283 120.5258 56.8703 120.5258 56.8703 121.8568 51.5813 121.8568"></polygon>
                    <path d="M58.6731,119.6738 C58.6731,119.6738 59.5961,120.5728 60.7961,120.5728 C61.4441,120.5728 62.0311,120.2368 62.0311,119.5418 C62.0311,118.0188 58.0131,118.2818 58.0131,115.6678 C58.0131,114.2528 59.2361,113.1968 60.8681,113.1968 C62.5471,113.1968 63.4101,114.1088 63.4101,114.1088 L62.7381,115.3678 C62.7381,115.3678 61.9231,114.6238 60.8561,114.6238 C60.1361,114.6238 59.5721,115.0438 59.5721,115.6438 C59.5721,117.1548 63.5781,116.7828 63.5781,119.5058 C63.5781,120.8608 62.5471,121.9998 60.7721,121.9998 C58.8771,121.9998 57.8331,120.8368 57.8331,120.8368 L58.6731,119.6738 Z" id="Fill-91" fill="#00B1B0"></path>
                </g>
            </g>
        </g>
    </g>
</svg>

<svg width="87" height="122" viewBox="0 0 87 122" xmlns="http://www.w3.org/2000/svg"><title>GAMES_ICON</title><g fill="none" fill-rule="evenodd"><path fill="#00B1B0" d="M.324 25.098l43.3-25 43.303 25v50l-43.302 25-43.301-25z"/><path fill="#FEFEFE" d="M38.375 46.932h-8.917v-8.916h-6.333v8.916h-8.916v6.333h8.916v8.917h6.333v-8.917h8.917zM64.793 41.849a3.833 3.833 0 1 1-7.666 0 3.833 3.833 0 0 1 7.666 0M64.793 58.348a3.834 3.834 0 1 1-7.668 0 3.834 3.834 0 0 1 7.668 0M56.543 50.098a3.833 3.833 0 1 1-7.666 0 3.833 3.833 0 0 1 7.666 0M73.042 50.098a3.833 3.833 0 1 1-7.666 0 3.833 3.833 0 0 1 7.666 0"/><path d="M28.095 113.18c2.087 0 3.167 1.078 3.167 1.078l-.768 1.151s-.913-.815-2.267-.815c-1.907 0-2.927 1.32-2.927 2.927 0 1.846 1.26 3.046 2.854 3.046 1.285 0 2.136-.888 2.136-.888v-.995h-1.307v-1.33h2.697v4.484h-1.319v-.408c0-.18.012-.359.012-.359h-.024s-.887.911-2.47.911c-2.242 0-4.174-1.739-4.174-4.413 0-2.47 1.86-4.39 4.39-4.39M36.136 114.798s-.193.84-.36 1.32l-.756 2.278h2.23l-.755-2.279c-.155-.479-.335-1.319-.335-1.319h-.024zm1.498 4.857h-2.986l-.72 2.183h-1.594l2.997-8.516h1.62l2.998 8.516h-1.594l-.72-2.183zM41.477 113.323h1.655l1.667 4.21c.192.504.432 1.247.432 1.247h.024s.228-.743.42-1.247l1.667-4.21h1.655l.684 8.516h-1.536l-.36-4.762c-.036-.564-.012-1.32-.012-1.32h-.024s-.251.829-.455 1.32l-1.38 3.299h-1.355l-1.367-3.3a20.65 20.65 0 0 1-.468-1.33H42.7s.024.767-.012 1.33l-.36 4.763h-1.547l.696-8.516zM51.581 113.323h5.097v1.332h-3.55v2.23h2.867v1.332h-2.867v2.29h3.742v1.332h-5.289zM58.673 119.656s.923.899 2.123.899c.648 0 1.235-.336 1.235-1.031 0-1.523-4.018-1.26-4.018-3.874 0-1.415 1.223-2.471 2.855-2.471 1.68 0 2.542.912 2.542.912l-.672 1.259s-.815-.744-1.882-.744c-.72 0-1.284.42-1.284 1.02 0 1.51 4.006 1.139 4.006 3.862 0 1.355-1.03 2.494-2.806 2.494-1.895 0-2.939-1.163-2.939-1.163l.84-1.163z" fill="#00B1B0"/></g></svg>
